X: 206
T: No_63_Calusa_Hunting_Dance_Song_(g).krn
N: Derived from No_63_Calusa_Hunting_Dance_Song_(g).krn
%%abc-version 2.0
%%abcx-abcm2ps-target-version 5.9.1 (29 Sep 2008)
%%abc-creator hum2abc beta
%%abcx-conversion-date 2019/03/15 08:38:45
%%humdrum-veritas 4080081338
%%humdrum-veritas-data 1407126669
%%linebreak <none>
%%barnumbers 0
L: 1/8
M: 3/4
K: F clef=bass
[K:clef=bass][M:3/4]z4z F, | 
C7/B,/A,2 ||  
[M:2/4](3F,F,F,F,2 | 
F,3/B,/ A,3/C/ ||  
[M:3/4]A,4A,F,/F,/- ||  
[M:2/4]F,3/A,/ F,3/A,/ ||  
[M:3/4]F,4-F,F,/F,/ | 
F,2F,3/A,/F,2 | 
A,2-A,3/F,/ F,3/A,/ ||  
[M:2/4]F,3/A,/ F,3/A,/ ||  
[M:3/4]F,3F,/F,/F,2 ||  
[M:2/4]F,3/F,/ F, z ||  
[M:3/4]C7/B,/A,2 ||  
[M:2/4](3F,F,F,F,2 | 
F,3/B,/ A,3/C/ ||  
[M:3/4]A,4A,F,/F,/ | 
F,3/A,/ F,3/A,/F,2 ]|:  
C/C3/ (3A,CC(C2 | 
A,/)A,3/ (3F,B,B, (3A,F,A, ||  
[M:5/8]F,F,F,F,F, | 
F,3C,2 ||  
[M:2/4](3F,F,F,F,2 | 
B,/A,3/ (3A,F,F, | 
F,2C,2 | 
(3F,F,F,F,2 :|]  
(C3G,/) z/ ]|:  
F,2F,2 | 
C3G, | 
CB, G,F, | 
B,G, F,E, ||  
[M:3/4]F,2z4 ||  
[M:2/4]F,2F,F, | 
F,4 | 
F,2G,F, | 
F,2z2 | 
F,2F,F, | 
F,4 | 
F,2F,2 | 
C4 | 
CB, G,F, | 
B,G, F,E, ||  
[M:3/4]F,2z4 ||  
[M:2/4]F,2F,F, | 
F,4 | 
F,2G,F, | 
F,4 | 
F,2F,F, | 
F,4 :|]  



